X: 36245
T: Seachdain Nan Deuchainn
R: reel
M: 4/4
K: Gmajor
|:F2^DF G2 EG|(3FE^DFB ^dfe^d|e2^de ge^de|^dBBF G3E|
F2^DF G2 EG|F^DFB ^dfe^d|e2^de ge^de|^dBBA B4:|
|:c ~A3 G~A3|B~G3 F~G3|F2FG AGFA|GEGA B3B|
c ~A3 G~A3|B~G3 F~G3|~F3G A ~F3|1 G3^G A3B:|2 G3^G A3=G||

